X: 1564
T: Pencerenin Perdesini...
C: Muhlis Sabahaddin Ezgi
O: Turkey
F: http://compmusic.upf.edu/node/140
N: hicaz--sarki--aksak--pencerenin_perdesini--muhlis_sabahaddin_ezgi
N: makam= hicaz
N: form= sarki
N: usul= aksak = 9/8
M: 9/8
L: 1/16
K: C _7/8B ^f ^c 
Q: 1/4=204
%%MIDI tuningsystem comma53
a8 g2=f2 e4 g2 | =f3ed2 f2e2 d2c2 B2A2  | G18 | \
w:  ARANAĞME  |   |   | 
e8=f2 d2c2 B2A2  | 
w:   | 
B4 c4 d2e2 c2B2 A2 | A18  | a8 g2=f2 e4 g2 | \
w:   |   |  ARANAĞME  | 
=f3ed2 f2e2 d2c2 B2A2  | 
w:   | 
G18 | e8=f2 d2c2 B2A2  | B4 c4 d2e2 c2B2 A2 | A18  | \
w:   |   |   |   | 
a8 g2=f2 e4 d2 | c4d2 e2c2 B2B4A2  | 
w:  Pen ce *  re  |  nin  per *  de *  si  | 
A16 z2 | e8=f2 e2d2 c2d2  | e4 g4 =f2e2 d2c2 e2 | \
w:  ni    |  Aç  ba *  na   |  gös ter  yü *  zü  | 
d16z2  | a8 g2=f2 e4 d2 | 
w:  nü    |  Pen ce *  re  | 
c4d2 e2c2 B2B4A2  | A16 z2 | e8=f2 e2d2 c2d2  | \
w:  nin  per *  de *  si  |  ni    |  Aç  ba *  na   | 
e4 g4 =f2e2 d2c2 e2 | 
w:  gös ter  yü *  zü  | 
d16z2  | a8 g2=f2 e4 g2 | =f3ed2 f2e2 d2c2 B2A2  | \
w:  nü    |  Gör mek  *  i  |  çin  *  gül  *  yü *  zü  | 
G16 z2 | e8=f2 d2c2 B2A2  | 
w:  nü    |  Dağ la *  rı   | 
B4 c4 d2e2 c2B2 A2 | A16z2  | a8 g2=f2 e4 g2 | \
w:  aş tım  da  *  gel  |  dim    |  Gör mek  *  i  | 
=f3ed2 f2e2 d2c2 B2A2  | 
w:  çin  *  gül  *  yü *  zü  | 
G16 z2 | e8=f2 d2c2 B2A2  | B4 c4 d2e2 c2B2 A2 | \
w:  nü    |  Dağ la *  rı   |  aş tım  da  *  gel  | 
A16z2  | a8 g2=f2 e4 g2 | 
w:  dim    |  ARANAĞME  | 
=f3ed2 f2e2 d2c2 B2A2  | G18 | e8=f2 d2c2 B2A2  | \
w:   |   |   | 
B4 c4 d2e2 c2B2 A2 | 
w:   | 
A18  | a8 g2=f2 e4 g2 | =f3ed2 f2e2 d2c2 B2A2  | G18 | \
w:   |  ARANAĞME  |   |   | 
e8=f2 d2c2 B2A2  | 
w:   | 
B4 c4 d2e2 c2B2 A2 | A18  | a8 g2=f2 e4 d2 | \
w:   |   |  Pen ce *  re  | 
c4d2 e2c2 B2B4A2  | A16 z2 | 
w:  nin  per *  de *  si  |  ni    | 
e8=f2 e2d2 c2d2  | e4 g4 =f2e2 d2c2 e2 | \
w:  Aç  ba *  na   |  gös ter  yü *  zü  | 
d16z2  | a8 g2=f2 e4 d2 | c4d2 e2c2 B2B4A2  | 
w:  nü    |  Pen ce *  re  |  nin  per *  de *  si  | 
A16 z2 | e8=f2 e2d2 c2d2  | e4 g4 =f2e2 d2c2 e2 | \
w:  ni    |  Aç  ba *  na   |  gös ter  yü *  zü  | 
d16z2  | a8 g2=f2 e4 g2 | 
w:  nü    |  Gör mek  *  i  | 
=f3ed2 f2e2 d2c2 B2A2  | G16 z2 | e8=f2 d2c2 B2A2  | \
w:  çin  *  gül  *  yü *  zü  |  nü    |  Dağ la *  rı   | 
B4 c4 d2e2 c2B2 A2 | 
w:  aş tım  da  *  gel  | 
A16z2  | a8 g2=f2 e4 g2 | =f3ed2 f2e2 d2c2 B2A2  | \
w:  dim    |  Gör mek  *  i  |  çin  *  gül  *  yü *  zü  | 
G16 z2 | e8=f2 d2c2 B2A2  | 
w:  nü    |  Dağ la *  rı   | 
B4 c4 d2e2 c2B2 A2 | A16z2  | e8 =f2d2 c2B2 A2 | \
w:  aş tım  da  *  gel  |  dim    |  Aş kın *  dan   | 
B4c4d2 e2c2 B2A2  | 
w:  coş tum  da  *  gel  | 
A16 z2 | |


